X: 125
T: Iggie and Squiggie
C: Jerry Holland
R: reel
Z: 2014 John Chambers <jc:trillian.mit.edu>
S: Printed copy of unknown origin, from Concord Slow Scottish Session collection
N: Chords added by John Chambers
M: C|
L: 1/8
K: D
|:\
"D"(fg)fe d/d/d fd | "G"TB2dB "D"TBAFA |\
"D"fgfe "(Bm)"d/d/d fd | "A7"ABde fec2 |\
"D"(fg)fe d/d/d fd |
"G"TB2dB "D"TBAFA |\
"D"fgfe "(G)"dedc | "A7"TBABc "D"d2 :: fg |\
"D"ad d/d/d adbd | "D"ad d/d/d "A7"{b}agfg |
"D"ad d/d/d adbd | "D"(fe)de "A"fecf |\
"D"ad d/d/d adbd | "D"ad d/d/d "G"Tg2fg |\
"D"(fg)fe "(G)"dedc | "A7"BABc "D"d2 :|
